X:1

T:Robin Adair

M:3/4

L:1/8
R:Air

S:Howe – 1000 Jigs and Reels (c. 1867)

Z:AK/Fiddler’s Companion

K:D

(A2B2c2) | (d3ef2) | A<d B<d c<e | d4 z2 :| f2f2f2 | a3A A2 | f2 fa a/g/e/c/ |

d3BA2 | a2 (gf ed) | d3e f2 | A<d B<d c<e | d6 ||

                       

ROBIN CUSHIE. AKA and see “Kind Robin (Lo’es Me).” Scottish, Air (4/4 time). G Major. Standard tuning. AABB. See note for “Kind Robin (Lo’es Me.” McGibbon (Scots Tunes, book III), 1762; pg. 77.

